icons/dribbble-line.svg

<svg viewBox="0 0 24 24" fill="currentColor" xmlns="http://www.w3.org/2000/svg"><path d="M19.9887 11.5716C19.9029 9.94513 19.3313 8.44745 18.4163 7.22097C18.1749 7.48407 17.8785 7.7698 17.4957 8.09159C16.5881 8.85458 15.4887 9.54307 14.1834 10.101C14.3498 10.4506 14.5029 10.7899 14.6376 11.1098L14.6388 11.1125C14.6652 11.1742 14.6879 11.2306 14.7321 11.3418C14.7379 11.3562 14.7433 11.3697 14.7485 11.3825C16.2621 11.2122 17.8576 11.2749 19.4049 11.4845C19.6106 11.5123 19.805 11.5415 19.9887 11.5716ZM10.6044 4.1213C10.7783 4.36621 10.9602 4.62859 11.1803 4.95378C11.7929 5.8589 12.396 6.81391 12.9604 7.79507C13.0749 7.99416 13.187 8.19289 13.2964 8.39112C14.5193 7.90993 15.5296 7.30281 16.3438 6.62486C16.6731 6.35063 16.9383 6.093 17.1403 5.86972C15.7501 4.70277 13.9571 4 12 4C11.524 4 11.0576 4.04158 10.6044 4.1213ZM4.25266 9.99755C4.83145 9.98452 5.48467 9.94941 6.29303 9.87518C7.90024 9.72758 9.54141 9.46249 11.1549 9.05274C10.5719 8.03721 9.93888 7.02331 9.29452 6.05378C8.98479 5.58775 8.68357 5.14992 8.45484 4.82642C6.39541 5.84613 4.83794 7.72658 4.25266 9.99755ZM5.78366 17.036C6.17111 16.4693 6.68061 15.8314 7.35797 15.1374C8.81199 13.6478 10.5286 12.4878 12.5139 11.8473C12.5417 11.8391 12.5604 11.8336 12.576 11.829C12.411 11.4651 12.2562 11.1405 12.1003 10.8342C10.2643 11.3687 8.3303 11.703 6.40279 11.8762C5.46319 11.9606 4.62005 11.9981 4 12.0044C4.00102 13.9112 4.66915 15.662 5.78366 17.036ZM15.0045 19.4166C14.9001 18.8745 14.7669 18.2706 14.5899 17.574C14.2689 16.3112 13.8668 15.012 13.373 13.7078C11.3712 14.4343 9.77574 15.4974 8.54309 16.7649C7.94904 17.3757 7.51244 17.9537 7.22642 18.4203C8.55892 19.4127 10.2109 20 12 20C13.0626 20 14.0769 19.7928 15.0045 19.4166ZM16.8778 18.3414C18.4073 17.1632 19.4985 15.444 19.8652 13.4703C19.5253 13.3865 19.094 13.3005 18.6196 13.2346C17.5756 13.0897 16.5014 13.0655 15.4409 13.2018C15.8933 14.4764 16.2642 15.7332 16.5608 16.9361C16.6903 17.4614 16.7958 17.9358 16.8778 18.3414ZM12 22C6.47715 22 2 17.5228 2 12C2 6.47715 6.47715 2 12 2C17.5228 2 22 6.47715 22 12C22 17.5228 17.5228 22 12 22Z"/></svg>

<svg xmlns="http://www.w3.org/2000/svg" viewBox="0 0 24 24">
    <g>
        <path fill="none" d="M0 0h24v24H0z"/>
        <path d="M19.989 11.572a7.96 7.96 0 0 0-1.573-4.351 9.749 9.749 0 0 1-.92.87 13.157 13.157 0 0 1-3.313 2.01c.167.35.32.689.455 1.009v.003a9.186 9.186 0 0 1 .11.27c1.514-.17 3.11-.108 4.657.101.206.028.4.058.584.088zm-9.385-7.45a46.164 46.164 0 0 1 2.692 4.27c1.223-.482 2.234-1.09 3.048-1.767a7.88 7.88 0 0 0 .796-.755A7.968 7.968 0 0 0 12 4a8.05 8.05 0 0 0-1.396.121zM4.253 9.997a29.21 29.21 0 0 0 2.04-.123 31.53 31.53 0 0 0 4.862-.822 54.365 54.365 0 0 0-2.7-4.227 8.018 8.018 0 0 0-4.202 5.172zm1.53 7.038c.388-.567.898-1.205 1.575-1.899 1.454-1.49 3.17-2.65 5.156-3.29l.062-.018c-.165-.364-.32-.689-.476-.995-1.836.535-3.77.869-5.697 1.042-.94.085-1.783.122-2.403.128a7.967 7.967 0 0 0 1.784 5.032zm9.222 2.38a35.947 35.947 0 0 0-1.632-5.709c-2.002.727-3.597 1.79-4.83 3.058a9.77 9.77 0 0 0-1.317 1.655A7.964 7.964 0 0 0 12 20a7.977 7.977 0 0 0 3.005-.583zm1.873-1.075a7.998 7.998 0 0 0 2.987-4.87c-.34-.085-.771-.17-1.245-.236a12.023 12.023 0 0 0-3.18-.033 39.368 39.368 0 0 1 1.438 5.14zM12 22C6.477 22 2 17.523 2 12S6.477 2 12 2s10 4.477 10 10-4.477 10-10 10z"/>
    </g>
</svg>
